X:1
T:Lord Randall
M:3/4
L:1/4
K:C
G/2-A/2| B B B| B- AA/2-B/2| c c c| c- BG/2-B/2| d e d| d- B G| A c B|\
 G2 G/2A/2| B B B| B A/2A/2 A/2B/2| c3/2 c/2 c| c- B G/2B/2| d e d|\
 d B G| A G A| G2||
